X: 556
T: Banks of Lough Gowna
B: good tune book
B: tunes
M:6/8
R: jig
Q: 3/8=100
K:Bminor
V:1 
"Bm"BcB BAF|"D"FEF DFA|"Bm"BcB BAF|"D"d2e fed|
 "Bm"BcB BAF|"D"FEF DFA|"Bm"def "A"gfe|"Bm"fdB B2A:|
 |:"D"def a3|afb afe|"Bm"def "A"gfe|"Bm"fed edB|
 "D"def a3|afb afe|"Bm"def "A"gfe|"Bm"fdB B2A:|
% abcbook-tune_id 63dce1aa489ad44016a6e249
% abcbook-tune_composer_id 
% abcbook-link-0 https://www.youtube.com/watch?v=B0HB0FQyesY
% abcbook-link-title-0 The Calum Stewart Trio - The Banks of Loch Gowna (live at Celtic Connections 2016)
% abcbook-boost 6
% abcbook-difficulty 0
% abcbook-tags good tune book
% abcbook-tablature 
% abcbook-transpose 
% abcbook-tuning 
% abcbook-lastupdated 1675552186877
% abcbook-soundfonts 
% abcbook-repeats 1


